X:56
T:The poor man's labour's never done
Z:Jack Campin - http://www.campin.me.uk
S:Blaikie MS (NLS MS.1578) p18, no Blaikie #
M:2/4
L:1/8
V:1 midi program 1 74
V:2 midi program 1 46 bass middle = d transpose -24
Q:1/4=68
K:A Minor
[V:1] G|cc````ee   |dc```````AG|c>dee|d/e/d/c/ A>B|
[V:2] z|C2````c2   |G2       f2|ed`cc|g2       f2 |
%
[V:1]   cd/c/ BB/A/|G/A/B/c/ dB|A>GEG|GA       A2|]
[V:2]   e2    f2   |ec       Gg|c2 c2|A2       A2|]
W:Transcription (c) Jack Campin 2009, no mirroring or republication without permission

